X:72
T:Dingle Reel, The
R:reel
S:Kevin Burke, who got it from the Murphy family.
D:Kevin Burke: Up Close.
Z:id:hn-reel-72
M:C|
K:D
D2DF EDB,A,|~D3F Ad~d2|Beef e2de|f2ed BAFE|
D2DF EDB,A,|~D3F Ad~d2|Beef e2dB|1 AFEF D2FE:|2 AFEF D4||
|:ABde ~f3a|af~f2 eB~B2|ABde ~f3a|af~f2 e2dB|
ABde ~f3a|af~f2 eB~B2|d2dB ABdB|1 AFEF D4:|2 AFEF D2FE||
<end>
<start>
